X:808
T:The Wickering Wench
T:Lord, What's Come to My Mother
C:John Young, 1716
S:Colin Hume's website,  colinhume.com  - chords can also be printed below the stave.
Q:3/8=120
M:6/8
L:1/8
K:G
P:A
|: "G"G2A BAG | "/"d3 B2e | "G"d>cB "Am"cEA | "D7"F3 D3 |\
"G"G2A BAG | "C"e3 "G"d2g | "D"fed "A7"e^c2 |1 "D"d6 :|2 "D"d3-d2 ||
P:B
|: F/G/ | "D7"A2B c>dc | "Em"B2e "B7"^d2f | "Em"g>fe "B7"f^d2 | "Em"e3- e2B/c/ |\
"G"d2e dGA | "Em"B3 "D"A2f | "Em"g2B "D7"A2G | "G"G3-G2 :|

